svgs/regular/comments-dollar.svg

<svg xmlns="http://www.w3.org/2000/svg" viewBox="0 0 640 512"><!--! Font Awesome Pro 6.0.0-alpha3 by @fontawesome - https://fontawesome.com License - https://fontawesome.com/license (Commercial License) --><path d="M212.7 159.5L207.1 158.1c-20.32-5.973-19.83-8.732-19.18-12.56c1.178-6.695 14.22-8.33 25.94-6.535c4.795 .7227 10.06 2.41 15.08 4.152c8.906 3.08 18.71-1.662 21.82-10.58C254.7 123.7 250 113.9 241.1 110.8C234.9 108.6 229.8 107.3 225.1 106.3v-9.113C225.1 87.69 217.5 80 208 80S190.9 87.69 190.9 97.14v8.564C171.6 109.8 158.1 121.8 155 139.7c-6.348 36.72 28.45 46.93 43.3 51.29l4.982 1.447C228.4 199.7 227.1 202.1 227.2 206.4c-1.18 6.697-14.22 8.357-25.98 6.535c-5.947-.8828-13.55-3.615-20.28-6.025L177.1 205.5C168.2 202.5 158.4 207.1 155.3 216C152.1 224.9 156.8 234.7 165.7 237.9l3.656 1.287c6.648 2.391 14.04 4.791 21.48 6.438v9.232C190.9 264.3 198.5 272 208 272s17.14-7.688 17.14-17.14V246.1c19.17-4.109 32.75-15.88 35.85-33.8C267.4 175.2 231.8 164.1 212.7 159.5zM599.6 443.7C624.8 413.9 640 376.6 640 336C640 238.8 554 160 448 160c-.3145 0-.6191 .041-.9336 .043C447.5 165.3 448 170.6 448 176c0 98.62-79.68 181.2-186.1 202.5C282.7 455.1 357.1 512 448 512c33.69 0 65.32-8.008 92.85-21.98C565.2 502 596.1 512 632.3 512c3.059 0 5.76-1.725 7.02-4.605c1.229-2.879 .6582-6.148-1.441-8.354C637.6 498.7 615.9 475.3 599.6 443.7zM416 176C416 78.8 322.9 0 208 0S0 78.8 0 176c0 41.63 17.18 79.81 45.73 109.9c-16.34 31.43-38.47 55.57-38.99 55.96c-6.746 7.15-8.635 17.81-4.721 26.98C5.93 378.1 14.97 384 24.95 384c54.18 0 98.32-19.24 128.1-38.22C171.2 349.7 189.3 352 208 352C322.9 352 416 273.2 416 176zM208 304c-14.16 0-28.77-1.689-43.41-5.021L145.4 294.6l-16.72 10.35c-17 10.52-34.42 18.39-52.14 23.57c4.184-6.668 8.191-13.57 11.77-20.45l15.78-30.34L80.57 252.9C65.71 237.3 48 211.2 48 176c0-70.58 71.78-128 160-128s160 57.42 160 128S296.2 304 208 304z"/></svg>

<svg xmlns="http://www.w3.org/2000/svg" viewBox="0 0 640 512"><!-- Font Awesome Pro 6.0.0-alpha2 by @fontawesome - https://fontawesome.com License - https://fontawesome.com/license (Commercial License) --><path d="M212.715 159.5L207.961 158.133C187.645 152.16 188.127 149.4 188.784 145.57C189.961 138.875 203.006 137.24 214.725 139.035C219.52 139.758 224.784 141.445 229.805 143.188C238.711 146.268 248.514 141.525 251.621 132.607C254.729 123.66 250.002 113.883 241.055 110.775C234.868 108.646 229.819 107.281 225.145 106.256V97.143C225.145 87.688 217.471 80 208.002 80S190.858 87.688 190.858 97.143V105.707C171.639 109.795 158.123 121.785 155.006 139.732C148.659 176.455 183.452 186.66 198.305 191.025L203.287 192.473C228.385 199.65 227.971 202.062 227.221 206.428C226.041 213.125 212.996 214.785 201.239 212.963C195.291 212.08 187.684 209.348 180.961 206.937L177.131 205.545C168.211 202.463 158.42 207.098 155.26 216.018C152.114 224.938 156.787 234.74 165.721 237.9L169.377 239.188C176.026 241.578 183.416 243.979 190.858 245.625V254.857C190.858 264.312 198.534 272 208.002 272S225.145 264.312 225.145 254.857V246.068C244.311 241.959 257.891 230.187 260.996 212.268C267.412 175.17 231.827 164.963 212.715 159.5ZM599.594 443.736C624.828 413.945 640 376.635 640 336C640 238.797 554.039 160 448 160C447.686 160 447.381 160.041 447.067 160.043C447.534 165.328 448 170.613 448 176C448 274.617 368.321 357.248 261.879 378.523C282.659 455.143 357.987 512 448 512C481.694 512 513.323 503.992 540.848 490.018C565.244 502.02 596.086 512 632.34 512C635.399 512 638.1 510.275 639.36 507.395C640.588 504.516 640.018 501.246 637.918 499.041C637.567 498.689 615.868 475.266 599.594 443.736ZM416 176C416 78.797 322.875 0 208 0S0 78.797 0 176C0 217.627 17.176 255.812 45.729 285.947C29.385 317.377 7.26 341.516 6.739 341.906C-0.007 349.057 -1.896 359.715 2.018 368.889C5.93 378.062 14.969 384 24.952 384C79.129 384 123.268 364.764 153.942 345.783C171.207 349.711 189.268 352 208 352C322.875 352 416 273.201 416 176ZM208 304C193.84 304 179.235 302.311 164.59 298.979L145.411 294.617L128.686 304.965C111.686 315.484 94.262 323.355 76.547 328.537C80.731 321.869 84.739 314.971 88.315 308.092L104.09 277.754L80.573 252.934C65.713 237.25 48 211.174 48 176C48 105.42 119.776 48 208 48S368 105.42 368 176S296.225 304 208 304Z"/></svg>
